packages/icons/svg/24/FrameSize.svg

<svg width="24" height="24" viewBox="0 0 24 24" fill="none" xmlns="http://www.w3.org/2000/svg">
<path d="M2 2V7C2 7.55228 2.44772 8 3 8C3.55228 8 4 7.55228 4 7V4H7C7.55228 4 8 3.55228 8 3C8 2.44772 7.55228 2 7 2H2Z" fill="#858585"/>
<path d="M22 2H17C16.4477 2 16 2.44772 16 3C16 3.55228 16.4477 4 17 4H20V7C20 7.55228 20.4477 8 21 8C21.5523 8 22 7.55228 22 7V2Z" fill="#858585"/>
<path d="M22 22H17C16.4477 22 16 21.5523 16 21C16 20.4477 16.4477 20 17 20H20V17C20 16.4477 20.4477 16 21 16C21.5523 16 22 16.4477 22 17V22Z" fill="#858585"/>
<path d="M2 22H7C7.55228 22 8 21.5523 8 21C8 20.4477 7.55228 20 7 20H4V17C4 16.4477 3.55228 16 3 16C2.44772 16 2 16.4477 2 17V22Z" fill="#858585"/>
</svg>

<svg width="24" height="24" fill="none" xmlns="http://www.w3.org/2000/svg" viewBox="0 0 24 24"><path d="M2 2v5a1 1 0 002 0V4h3a1 1 0 000-2H2zM22 2h-5a1 1 0 100 2h3v3a1 1 0 102 0V2zM22 22h-5a1 1 0 110-2h3v-3a1 1 0 112 0v5zM2 22h5a1 1 0 100-2H4v-3a1 1 0 10-2 0v5z" fill="currentColor"></path></svg>
